images/ic_map.svg

<svg width="20" height="20" viewBox="0 0 20 20" fill="none" xmlns="http://www.w3.org/2000/svg">
<path d="M13.798 12.9577C13.9412 13.1841 14.1904 13.3214 14.4584 13.3214H14.7573C15.0252 13.3214 15.2745 13.1841 15.4176 12.9576C15.9504 12.1147 16.6257 11.3752 17.2787 10.66C18.6145 9.19723 19.9956 7.68469 19.9979 5.38383C19.9945 2.4152 17.5765 0 14.6078 0C11.6392 0 9.22121 2.4152 9.21777 5.38551C9.22 7.68473 10.6012 9.19727 11.9369 10.66C12.59 11.3752 13.2652 12.1148 13.798 12.9577ZM14.6078 1.56234C16.716 1.56234 18.4332 3.2775 18.4356 5.38398C18.4339 7.07805 17.364 8.2498 16.1251 9.60652C15.6138 10.1664 15.0898 10.7402 14.6078 11.3837C14.1259 10.7403 13.6019 10.1664 13.0906 9.60652C11.8517 8.2498 10.7818 7.07805 10.7801 5.38562C10.7825 3.2775 12.4996 1.56234 14.6078 1.56234Z" fill="#4F4F4F"/>
<path d="M15.35 7.02552C15.35 6.59408 15.0003 6.24435 14.5689 6.24435C14.1381 6.24435 13.7877 5.89392 13.7877 5.46318C13.7877 5.03243 14.1381 4.682 14.5689 4.682C14.9996 4.682 15.35 5.03243 15.35 5.46318C15.35 5.89462 15.6997 6.24435 16.1312 6.24435C16.5626 6.24435 16.9124 5.89462 16.9124 5.46318C16.9124 4.17095 15.8611 3.11966 14.5689 3.11966C13.2766 3.11966 12.2253 4.17095 12.2253 5.46318C12.2253 6.7554 13.2766 7.80669 14.5689 7.80669C15.0003 7.80669 15.35 7.45693 15.35 7.02552Z" fill="#4F4F4F"/>
<path d="M19.2168 11.1342C18.7854 11.1342 18.4356 11.4839 18.4356 11.9153V17.636C18.4356 17.9047 18.3074 18.1465 18.0838 18.2995C17.869 18.4465 17.6093 18.4779 17.3716 18.3854C17.3589 18.3806 17.3462 18.376 17.3333 18.3717L14.3859 17.3997C13.5568 17.0934 12.6668 17.0488 11.8109 17.2709L7.72121 18.3322C7.19 18.47 6.6277 18.4729 6.09504 18.3406L2.74809 17.5092C2.04996 17.3358 1.56238 16.7123 1.56238 15.9929V2.346C1.56238 2.0833 1.68695 1.84783 1.90418 1.7001C2.12141 1.55232 2.38617 1.52291 2.63047 1.61943C2.64266 1.62424 2.65492 1.62873 2.6673 1.63291L5.58371 2.61838C6.32906 2.90076 7.13629 2.97088 7.91941 2.82104C8.34316 2.73994 8.62098 2.33072 8.53992 1.90701C8.45883 1.48326 8.04949 1.20537 7.6259 1.2865C7.12328 1.38268 6.60512 1.3367 6.1273 1.15357C6.11754 1.14982 6.10773 1.14631 6.09785 1.14299L3.1841 0.158457C2.46691 -0.117246 1.66156 -0.0244331 1.02547 0.408301C0.383359 0.845059 0 1.56943 0 2.346V15.9929C0 17.4316 0.975117 18.6787 2.37137 19.0255L5.71828 19.8569C6.10234 19.9523 6.4968 20 6.89129 20C7.30273 20 7.71418 19.9481 8.11359 19.8444L12.2033 18.7832C12.7522 18.6408 13.323 18.6704 13.8541 18.8688C13.8636 18.8724 13.8732 18.8757 13.8828 18.8789L16.8266 19.8497C17.5367 20.1177 18.3348 20.0209 18.9661 19.5888C19.6122 19.1467 19.9979 18.4167 19.9979 17.636V11.9153C19.998 11.4839 19.6482 11.1342 19.2168 11.1342Z" fill="#4F4F4F"/>
<path d="M6.91337 7.18924C6.48177 7.18924 6.1322 7.53881 6.1322 7.97041C6.1322 8.40162 6.48177 8.75158 6.91337 8.75158C7.34497 8.75158 7.69454 8.40162 7.69454 7.97041C7.69454 7.53881 7.34497 7.18924 6.91337 7.18924Z" fill="#4F4F4F"/>
<path d="M6.91337 10.0015C6.48177 10.0015 6.1322 10.351 6.1322 10.7826C6.1322 11.2142 6.48177 11.5638 6.91337 11.5638C7.34497 11.5638 7.69454 11.2142 7.69454 10.7826C7.69454 10.351 7.34497 10.0015 6.91337 10.0015Z" fill="#4F4F4F"/>
<path d="M6.91337 12.8137C6.48177 12.8137 6.1322 13.1633 6.1322 13.5949C6.1322 14.0265 6.48177 14.3761 6.91337 14.3761C7.34497 14.3761 7.69454 14.0265 7.69454 13.5949C7.69454 13.1633 7.34497 12.8137 6.91337 12.8137Z" fill="#4F4F4F"/>
<path d="M6.91337 4.37708C6.48177 4.37708 6.1322 4.72665 6.1322 5.15825C6.1322 5.58946 6.48177 5.93942 6.91337 5.93942C7.34497 5.93942 7.69454 5.58946 7.69454 5.15825C7.69454 4.72665 7.34497 4.37708 6.91337 4.37708Z" fill="#4F4F4F"/>
<path d="M6.91337 15.6259C6.48177 15.6259 6.1322 15.9755 6.1322 16.4071C6.1322 16.8383 6.48177 17.1882 6.91337 17.1882C7.34497 17.1882 7.69454 16.8383 7.69454 16.4071C7.69454 15.9755 7.34497 15.6259 6.91337 15.6259Z" fill="#4F4F4F"/>
</svg>

<svg xmlns="http://www.w3.org/2000/svg" xmlns:xlink="http://www.w3.org/1999/xlink" viewBox="0 0 20 20"><g fill="#4f4f4f"><path d="M13.798 12.958a.78.78 0 0 0 .66.364h.3a.78.78 0 0 0 .66-.364c.533-.843 1.208-1.582 1.86-2.298 1.336-1.463 2.717-2.975 2.72-5.276A5.4 5.4 0 0 0 14.608 0a5.4 5.4 0 0 0-5.39 5.385c.002 2.3 1.383 3.812 2.72 5.275.653.715 1.328 1.455 1.86 2.298zm.8-11.395c2.108 0 3.825 1.715 3.828 3.822-.002 1.694-1.072 2.866-2.3 4.223L14.6 11.385c-.482-.643-1.006-1.217-1.517-1.777-1.24-1.357-2.3-2.53-2.3-4.22.002-2.108 1.72-3.823 3.828-3.823zm.752 5.463a.78.78 0 0 0-.781-.781.781.781 0 1 1 .781-.781.78.78 0 1 0 1.562 0c0-1.292-1.05-2.343-2.344-2.343s-2.344 1.05-2.344 2.344 1.05 2.343 2.344 2.343a.78.78 0 0 0 .781-.781zm3.867 4.108a.78.78 0 0 0-.781.781v5.72a.79.79 0 0 1-.352.663.76.76 0 0 1-.712.086l-.038-.014-2.947-.972c-.83-.306-1.72-.35-2.575-.13l-4.1 1.06c-.53.138-1.093.14-1.626.008l-3.347-.83a1.56 1.56 0 0 1-1.186-1.516V2.346a.77.77 0 0 1 .342-.646.77.77 0 0 1 .726-.081l.037.013 2.916.985c.745.282 1.553.353 2.336.203a.78.78 0 1 0-.294-1.535c-.503.096-1.02.05-1.5-.133l-.03-.01L3.184.158a2.34 2.34 0 0 0-2.159.25A2.34 2.34 0 0 0 0 2.346v13.647a3.12 3.12 0 0 0 2.371 3.033l3.347.83a4.87 4.87 0 0 0 2.395-.012l4.1-1.06a2.73 2.73 0 0 1 1.65.086l.03.01 2.944.97a2.33 2.33 0 0 0 2.139-.261c.646-.442 1.032-1.172 1.032-1.953v-5.72a.78.78 0 0 0-.781-.781z"/><use xlink:href="#B"/><use xlink:href="#B" y="2.812"/><use xlink:href="#B" y="5.624"/><use xlink:href="#B" y="-2.813"/><use xlink:href="#B" y="8.436"/></g><defs ><path id="B" d="M6.913 7.19a.78.78 0 1 0 0 1.562.78.78 0 1 0 0-1.562z"/></defs></svg>
